assets/img/icons/duotone-icons/Files/Selected-file.svg

<?xml version="1.0" encoding="UTF-8"?>
<svg width="24px" height="24px" viewBox="0 0 24 24" version="1.1" xmlns="http://www.w3.org/2000/svg" xmlns:xlink="http://www.w3.org/1999/xlink">
    <!-- Generator: Sketch 52.2 (67145) - http://www.bohemiancoding.com/sketch -->
    <title>Stockholm-icons / Files / Selected-file</title>
    <desc>Created with Sketch.</desc>
    <g id="Stockholm-icons-/-Files-/-Selected-file" stroke="none" stroke-width="1" fill="none" fill-rule="evenodd">
        <polygon id="Shape" points="0 0 24 0 24 24 0 24"></polygon>
        <path d="M4.85714286,1 L11.7364114,1 C12.0910962,1 12.4343066,1.12568431 12.7051108,1.35473959 L17.4686994,5.3839416 C17.8056532,5.66894833 18,6.08787823 18,6.52920201 L18,19.0833333 C18,20.8738751 17.9795521,21 16.1428571,21 L4.85714286,21 C3.02044787,21 3,20.8738751 3,19.0833333 L3,2.91666667 C3,1.12612489 3.02044787,1 4.85714286,1 Z M8,12 C7.44771525,12 7,12.4477153 7,13 C7,13.5522847 7.44771525,14 8,14 L15,14 C15.5522847,14 16,13.5522847 16,13 C16,12.4477153 15.5522847,12 15,12 L8,12 Z M8,16 C7.44771525,16 7,16.4477153 7,17 C7,17.5522847 7.44771525,18 8,18 L11,18 C11.5522847,18 12,17.5522847 12,17 C12,16.4477153 11.5522847,16 11,16 L8,16 Z" id="Combined-Shape-Copy" fill="#335EEA" opacity="0.3"></path>
        <path d="M6.85714286,3 L14.7364114,3 C15.0910962,3 15.4343066,3.12568431 15.7051108,3.35473959 L20.4686994,7.3839416 C20.8056532,7.66894833 21,8.08787823 21,8.52920201 L21,21.0833333 C21,22.8738751 20.9795521,23 19.1428571,23 L6.85714286,23 C5.02044787,23 5,22.8738751 5,21.0833333 L5,4.91666667 C5,3.12612489 5.02044787,3 6.85714286,3 Z M8,12 C7.44771525,12 7,12.4477153 7,13 C7,13.5522847 7.44771525,14 8,14 L15,14 C15.5522847,14 16,13.5522847 16,13 C16,12.4477153 15.5522847,12 15,12 L8,12 Z M8,16 C7.44771525,16 7,16.4477153 7,17 C7,17.5522847 7.44771525,18 8,18 L11,18 C11.5522847,18 12,17.5522847 12,17 C12,16.4477153 11.5522847,16 11,16 L8,16 Z" id="Combined-Shape" fill="#335EEA"></path>
    </g>
</svg>

<svg width="24" height="24" viewBox="0 0 24 24" xmlns="http://www.w3.org/2000/svg"><g fill="none" fill-rule="evenodd"><path d="M0 0h24v24H0z"/><path d="M4.857 1h6.88a1.5 1.5 0 01.968.355l4.764 4.029A1.5 1.5 0 0118 6.529v12.554c0 1.79-.02 1.917-1.857 1.917H4.857C3.02 21 3 20.874 3 19.083V2.917C3 1.127 3.02 1 4.857 1zM8 12a1 1 0 000 2h7a1 1 0 000-2H8zm0 4a1 1 0 000 2h3a1 1 0 000-2H8z" fill="#335EEA" opacity=".3"/><path d="M6.857 3h7.88a1.5 1.5 0 01.968.355l4.764 4.029A1.5 1.5 0 0121 8.529v12.554c0 1.79-.02 1.917-1.857 1.917H6.857C5.02 23 5 22.874 5 21.083V4.917C5 3.127 5.02 3 6.857 3zM8 12a1 1 0 000 2h7a1 1 0 000-2H8zm0 4a1 1 0 000 2h3a1 1 0 000-2H8z" fill="#335EEA"/></g></svg>
